svgs/thin/laptop-medical.svg

<svg xmlns="http://www.w3.org/2000/svg" viewBox="0 0 640 512"><!--! Font Awesome Pro 6.6.0 by @fontawesome - https://fontawesome.com License - https://fontawesome.com/license (Commercial License) Copyright 2024 Fonticons, Inc. --><path d="M128 48l384 0c26.5 0 48 21.5 48 48l0 256 16 0 0-256c0-35.3-28.7-64-64-64L128 32C92.7 32 64 60.7 64 96l0 256 16 0L80 96c0-26.5 21.5-48 48-48zM620.8 400c1.8 0 3.2 1.4 3.2 3.2c0 33.6-27.2 60.8-60.8 60.8L76.8 464C43.2 464 16 436.8 16 403.2c0-1.8 1.4-3.2 3.2-3.2l601.6 0zM19.2 384C8.6 384 0 392.6 0 403.2C0 445.6 34.4 480 76.8 480l486.4 0c42.4 0 76.8-34.4 76.8-76.8c0-10.6-8.6-19.2-19.2-19.2L19.2 384zM296 128c0-4.4 3.6-8 8-8l32 0c4.4 0 8 3.6 8 8l0 56c0 4.4 3.6 8 8 8l56 0c4.4 0 8 3.6 8 8l0 32c0 4.4-3.6 8-8 8l-56 0c-4.4 0-8 3.6-8 8l0 56c0 4.4-3.6 8-8 8l-32 0c-4.4 0-8-3.6-8-8l0-56c0-4.4-3.6-8-8-8l-56 0c-4.4 0-8-3.6-8-8l0-32c0-4.4 3.6-8 8-8l56 0c4.4 0 8-3.6 8-8l0-56zm8-24c-13.3 0-24 10.7-24 24l0 48-48 0c-13.3 0-24 10.7-24 24l0 32c0 13.3 10.7 24 24 24l48 0 0 48c0 13.3 10.7 24 24 24l32 0c13.3 0 24-10.7 24-24l0-48 48 0c13.3 0 24-10.7 24-24l0-32c0-13.3-10.7-24-24-24l-48 0 0-48c0-13.3-10.7-24-24-24l-32 0z"/></svg>

<svg xmlns="http://www.w3.org/2000/svg" viewBox="0 0 640 512"><!--! Font Awesome Pro 6.5.2 by @fontawesome - https://fontawesome.com License - https://fontawesome.com/license (Commercial License) Copyright 2024 Fonticons, Inc. --><path d="M128 48H512c26.5 0 48 21.5 48 48V352h16V96c0-35.3-28.7-64-64-64H128C92.7 32 64 60.7 64 96V352H80V96c0-26.5 21.5-48 48-48zM620.8 400c1.8 0 3.2 1.4 3.2 3.2c0 33.6-27.2 60.8-60.8 60.8H76.8C43.2 464 16 436.8 16 403.2c0-1.8 1.4-3.2 3.2-3.2H620.8zM19.2 384C8.6 384 0 392.6 0 403.2C0 445.6 34.4 480 76.8 480H563.2c42.4 0 76.8-34.4 76.8-76.8c0-10.6-8.6-19.2-19.2-19.2H19.2zM296 128c0-4.4 3.6-8 8-8h32c4.4 0 8 3.6 8 8v56c0 4.4 3.6 8 8 8h56c4.4 0 8 3.6 8 8v32c0 4.4-3.6 8-8 8H352c-4.4 0-8 3.6-8 8v56c0 4.4-3.6 8-8 8H304c-4.4 0-8-3.6-8-8V248c0-4.4-3.6-8-8-8H232c-4.4 0-8-3.6-8-8V200c0-4.4 3.6-8 8-8h56c4.4 0 8-3.6 8-8V128zm8-24c-13.3 0-24 10.7-24 24v48H232c-13.3 0-24 10.7-24 24v32c0 13.3 10.7 24 24 24h48v48c0 13.3 10.7 24 24 24h32c13.3 0 24-10.7 24-24V256h48c13.3 0 24-10.7 24-24V200c0-13.3-10.7-24-24-24H360V128c0-13.3-10.7-24-24-24H304z"/></svg>
